assets/icons/uE00B-creditcard.svg

<svg xmlns="http://www.w3.org/2000/svg" width="896" height="1232" viewBox="0 0 896 1232"><path d="M849 307q47 47 47 114 0 66-47 113L478 905q-47 47-113 47-67 0-114-47Q57 712 47 701 0 654 0 587q0-66 47-113l371-371q47-47 113-47 67 0 114 47zM87 513q-31 31-31 74.5T87 662l518-519q-30-31-74-31-43 0-74 31zm722-18q31-31 31-74.5T809 347L661 198 142 717l148 148q31 31 75 31 43 0 74-31z"/></svg>

<?xml version="1.0" encoding="UTF-8" standalone="no"?><svg   xmlns:svg="http://www.w3.org/2000/svg"   xmlns="http://www.w3.org/2000/svg"   version="1.1"   width="896"   height="1232"   viewBox="0 0 896 1232">  <path     d="M849 307Q896 354 896 421Q896 487 849 534L478 905Q431 952 365 952Q298 952 251 905Q57 712 47 701Q0 654 0 587Q0 521 47 474L418 103Q465 56 531 56Q598 56 645 103zM87 513Q56 544 56 587.5T87 662L605 143Q575 112 531 112Q488 112 457 143zM809 495Q840 464 840 420.5T809 347L661 198L142 717L290 865Q321 896 365 896Q408 896 439 865z"     id="icon382" /></svg>
